X:1024
T:Baille de Panderu (CT 474)
R:Panderu
C:Tradicional
S:Música Tradicional Asturiana, (C) Tello & Tito. Asturies, 2001.
S:http://pagina.de/MusTradAst <telloytito@asturies.org>
N:Canción de baile de pandero, transcrita en Cangas de Tinéu.
O:Cangas de Tinéu (Tinéu)
A:Asturies
Z:Cancioneru de Torner 474
M:3/8
L:1/8
Q:3/8=88
W:Salíi, mozos, a bail.lare,
W:y a los de mi pueblo digo,
W:que los que vienen d'afuera
W:gasten munchu señorío.
K:F
d|ffd|e2e|cAB|cdc|e2d|fe2-|
ezd|ffd|e2e|cAB|cdc|e2c|dc2-|cz||


